X:1
T: The Castle in the Glen
T: 8 x 32S 3C
P: Dumbarton Castle
C: Carl Volti, from Nan Main
C: Arr. Terry Traub, 7-30-03
M: 4/4
L: 1/8
K: A
A|"A"E<AA>B c>BA>B|"A"c<ee>f e3 A|"A"E<AA>B "F#m"c>BA>E|"Bm"Fc "E"B3 A|"A"E<AA>B c>BA>B|"A"c<ee>f e3 e|
"A"a>gf>e "D"(3fed "A"cBA|"Bm"Fc "E"B3||d|"A"c<ee>f a>ec>A|"A"c<ee<f e3 d|"A"c<ee>f "F#m"a/g/f/e/ d/c/B/A/|
"Bm"Fc "E"B3 d|"A"c<ee>f a>ec>A|"A"c<ee>f e3 e|"A"a>gf>e "F#m"a/g/f/e/ d/c/B/A/|"Bm"F<B "E"G<e "A"A3 |]
